X:147
T:Sonata RV 68 in G minor - Preludio
C:Vivaldi, A.
M:4/4
L:1/8
Q:1/4=66
K:Gmin
|:D2|g4 fg a2|b4 a2 g2|f4 ef g2|a4 g2 f2|
e4 fe g2|a2 gf e2 d2|d4 cd e2|g4 g2:|

